X:19
T:I have a wife of my Ain
T:aka - I Have a Wife of My Own (O'Neill Collection)
R:slip jig
C:traditional
B:Bremner's Collections, 1757
N:melodic code 13b5 13b5
Z:Paul Stewart Cranford (P.S.C.), <http://www.cranfordpub.com>
L:1/8
M:9/8
Q:333
K:Edor
(EFE) G2 A B3|(EFE) G2 A BGE|(EFE) G2 A (Bcd)|(DED) F2 d (AFD):|
(gag) (fgf) e3|(EFE) G2 A BGE|(gag) (fgf) (efe)|(DED) F2 d (AFD)|
(gag) (fgf) e3|(EFE) G2 A BGE|(gag) (fgf) (efe)|(ABc) (dcB) (AFD)|]
